!!!!SEGMENT: pl-wn--sd-xvi-o-256_anonim--kancjonal-zamoyskich-piesn-o-zimie-badz-pamiatka-wieczna-kazdemu.krn
!!!cenid: 15xx:814
!!!COM: Anonim
!!!COM-rismid: pe30004985
!!!CDT:
!!!CNT:
!!!OTL: Kancjonał Zamoyskich
!!!PDT: 1561
!!!AGN:
!!!SMS-siglum: PL-Wn
!!!SMS-shelfmark: SD XVI.O.256
!!!SMS-shelfwork: W
!!!SMS-variant:
!!!SMS-altvar:
!!!NIFC-rismid: 990072141
!!!URL-scan: https://polona.pl/item/piesn-o-zimie-ktora-byla-roku-od-narodzenia-pana-krystusowego-m-d-lvij-nowo-vczniona,MTE3MjExMQ/3/#info:metadata
!!!ONB-nifc: UWAGA: proszę zapisywać tylko teksty występujące bezpośrednio pod nutami
!!!key: G:mix
**kern	**kern	**text	**text	**kern	**kern	**text	**text
*part4	*part3	*part3	*part3	*part2	*part1	*part1	*part1
*staff4	*staff3	*staff3	*staff3	*staff2	*staff1	*staff1	*staff1
*I"Baſſus.	*I"Tenor.	*	*	*I"Altus.	*I"Diſcantus.	*	*
*I'B	*I'T	*	*	*I'A	*I'S	*	*
*Ibass	*Itenor	*	*	*Ialto	*Isoprn	*	*
*ICvox	*ICvox	*	*	*ICvox	*ICvox	*	*
*clefF4	*clefC4	*	*	*clefC3	*clefC1	*	*
*k[]	*k[]	*	*	*k[]	*k[]	*	*
*G:mix	*G:mix	*	*	*G:mix	*G:mix	*	*
*M2/1	*M2/1	*	*	*M2/1	*M2/1	*	*
*met(C|)	*met(C|)	*	*	*met(C|)	*met(C|)	*	*
*>[A,A,B,B]	*>[A,A,B,B]	*>[A,A,B,B]	*>[A,A,B,B]	*>[A,A,B,B]	*>[A,A,B,B]	*>[A,A,B,B]	*>[A,A,B,B]
=1-	=1-	=1-	=1-	=1-	=1-	=1-	=1-
*>A	*>A	*>A	*>A	*>A	*>A	*>A	*>A
!!LO:TX:t=P:problem:metrum przed kluczem
2r	2r	.	.	2r	2r	.	.
2C/	2G/	Bądź	Já-	2e\	2cc\	Bądź	Já-
2GG/	2d\	pá-	-ko	2g\	2b\	pa-	-ko
2G\	2d\	-miąt-	Pan	2g\	2b\	-miąt-	pan
=2-	=2-	=2-	=2-	=2-	=2-	=2-	=2-
2A\	2e\	-ká	Bog	2a\	2cc\	-ká	Bog
!LO:SIC:v:s=2c\	!	!	!	!	!	!	!
2B\	2c\	wiecż-	gniew	2g\	2ee\	wiecż-	gniew
2.G\	2d\	-na	ſwoy	2.g\	2dd\	-na	ſwoy
.	2c\	káż-	o-	.	2a/	káż-	o-
4A\	.	.	.	4f\	.	.	.
=3-	=3-	=3-	=3-	=3-	=3-	=3-	=3-
1G	1B	-de-	-bro-	1d	1g	-de-	-bro-
*custos:D	*	*	*	*	*	*	*
!LO:LB:g=original	!	!	!	!	!	!	!
1D	1A	-mu,	-ćił/	1f	1a	-mu/	-ćił/
=4-	=4-	=4-	=4-	=4-	=4-	=4-	=4-
2C/	2c\	etc.	.	[y2e\	2cc\	etc.	etc
!	!	!	!	!LO:LB:g=original	!	!	!
!	!	!	!	!LO:N:xstem:cue	!	!	!
2G\	2B/	.	.	4e\]	2dd\	.	.
*	*	*	*	*custos:d	*	*	*
.	.	.	.	4d/	.	.	.
2F\	2A/	.	.	2f\	2dd\	.	.
2E/	2G/	.	.	2c/	2cc\	.	.
=5-	=5-	=5-	=5-	=5-	=5-	=5-	=5-
1D	1d	.	.	1f	2.a/	.	.
.	.	.	.	.	4b\	.	.
2F\	2c\	.	.	2f\	2cc\	.	.
*	*	*	*	*	*custos:g	*	*
!	!	!	!	!	!LO:LB:g=original	!	!
2G\	2B/	.	.	2d/	1g\	.	.
=6-	=6-	=6-	=6-	=6-	=6-	=6-	=6-
2D/	1A	.	.	2d/	.	.	.
2D/	.	.	.	2d/	2f/	.	.
1GG	1G	.	.	1B	1g	.	.
=7:|!|:-	=7:|!|:-	=7:|!|:-	=7:|!|:-	=7:|!|:-	=7:|!|:-	=7:|!|:-	=7:|!|:-
*>B	*>B	*>B	*>B	*>B	*>B	*>B	*>B
!LO:LB:g=original	!LO:LB:g=original	!	!	!	!	!	!
2r	2r	.	.	2r	2r	.	.
2G\	2B/	Nie	A-	2d/	2g/	Nie	A-
2F\	2A/	prze	-by	2d/	2a/	prze	-by
*	*	*	*	*custos:e	*	*	*
!	!	!	!	!LO:LB:g=original	!	!	!
2E/	2B/	in-	wſzel-	2e\	2g/	i-	wſzel-
=8-	=8-	=8-	=8-	=8-	=8-	=8-	=8-
2C/	2.c\	-ny	-ki	2g\	2g/	-ny	-ki
2G\	.	.	.	2g\	2g/	ſpo-	był
.	4B/	ſpo-	był	.	.	.	.
2F\	2A/	-ſob	te-	2c/	2a/	-ſob	te-
2E/	2G/	ie-	-go	2c/	2e/	ie-	-go
=9-	=9-	=9-	=9-	=9-	=9-	=9-	=9-
2G\	2B/	-dno	pe-	2d/	2d/	-no	pe-
2C/	2c\	prze	-wien.	2e\	1g	prze	-wień.
2D/	1A	ten/	.	2d/	.	.	.
2D/	.	.	.	2d/	2f/	ten/	.
=10-	=10-	=10-	=10-	=10-	=10-	=10-	=10-
!LO:N:vis=000	!	!	!	!	!LO:N:vis=000	!	!
0GG/	0Gl/	.	.	0dl/	0g/	.	.
=:|!	=:|!	=:|!	=:|!	=:|!	=:|!	=:|!	=:|!
*-	*-	*-	*-	*-	*-	*-	*-
!!!system-decoration: [(s1,s2,s3,s4)]
!!!RDF**kern: > = above
!!!RDF**kern: < = below
!!!RDF**kern: l = terminal long
!!!ENC: Katarzyna Serwa
!!!END: 2022-05-08
!!!AIN: 1 alto 1 bass 1 soprn 1 tenor
!!!ENC: Mateusz Solarz
!!!END: 2022-04-26
